X:117
T:La Belle Alliance Waltz. RH.117
R:Waltz
S:Rev.R.Harrison’s MS,c1815,Cumbria
O:England
A:Temple Sowerby,Cumbria
Z:vmp.Simon Wilson. Review PJH, 2008.
M:3/8
L:1/16
Q:3/8=50
K:C
ge|\
c4gf|d4ge|c2c’2c’2|b2d’2 ge|!
c4gf|d4ge|c2c’2 bd’|c’4:|!
|:g2|g4bg|c’g e2c2|gf d2B2|ce g2g2|!
g4bg|c’g e2c2|gf d2bg|c’4:|!
|:g2|g4c’2|e’d’c’bag|fedefg|e2c2g2|!
g4c’2|e’d’c’bag|fedefd|” Fine”c4:|!
K:Eb
g2|ga g2g2|gc’ g2g2|gagfed|eg c2g2|!
ga g2g2|gc’ g2g2|gfedc^B|” DC”c4:|

